src/app/client/src/assets/images/alert.svg

<?xml version="1.0" encoding="UTF-8"?>
<svg width="21px" height="19px" viewBox="0 0 21 19" version="1.1" xmlns="http://www.w3.org/2000/svg" xmlns:xlink="http://www.w3.org/1999/xlink">
    <title>6644F747-A49B-4B49-A56D-0187890F28CF</title>
    <g id="Page-1" stroke="none" stroke-width="1" fill="none" fill-rule="evenodd">
        <g id="After-Completed-modules" transform="translate(-1059.000000, -306.000000)" fill="#FFA11D" fill-rule="nonzero">
            <g id="Certified-course-Copy" transform="translate(1035.000000, 288.000000)">
                <g id="alert" transform="translate(24.000000, 18.000000)">
                    <path d="M20.6345208,14.8916882 L12.8612727,1.36943726 C12.3740074,0.52195665 11.4742733,0 10.4997428,0 C9.52521234,0 8.62523611,0.52171354 8.13797088,1.36943726 L0.365448926,14.8916882 C-0.121816309,15.7389257 -0.121816309,16.7830821 0.365448926,17.6308058 C0.852472102,18.4778002 1.75244833,19 2.7269788,19 L18.2729909,19 C19.2472793,19 20.1474976,18.4780434 20.6347629,17.6308058 C21.121786,16.7830821 21.121786,15.7389257 20.6345208,14.8916882 Z M11.3280695,15.261215 C11.3280695,15.6971108 10.9761154,16.0503493 10.5423452,16.0503493 L10.4997428,16.0503493 C10.0659727,16.0503493 9.7142606,15.6971108 9.7142606,15.261215 L9.7142606,15.2186708 C9.7142606,14.782775 10.0659727,14.4297797 10.4997428,14.4297797 L10.5423452,14.4297797 C10.9761154,14.4297797 11.3280695,14.782775 11.3280695,15.2186708 L11.3280695,15.261215 Z M11.285225,12.8303606 C11.285225,13.2662564 10.933755,13.6194948 10.4997428,13.6194948 C10.0659727,13.6194948 9.7142606,13.2662564 9.7142606,12.8303606 L9.20496798,5.66542979 C9.20496798,5.22977711 10.0662147,4.70587558 10.4999849,4.70587558 C10.9339971,4.70587558 11.7952438,5.22977711 11.7952438,5.66542979 L11.285225,12.8303606 Z" id="Shape"></path>
                </g>
            </g>
        </g>
    </g>
</svg>

<svg xmlns="http://www.w3.org/2000/svg" width="21" height="19" xmlns:v="https://vecta.io/nano"><path d="M20.635 14.892L12.86 1.37C12.374.522 11.474 0 10.5 0S8.625.522 8.138 1.37L.365 14.892a2.75 2.75 0 0 0 0 2.739C.852 18.478 1.752 19 2.727 19h15.546c.974 0 1.875-.522 2.362-1.37a2.75 2.75 0 0 0 0-2.739zm-9.306.37c0 .436-.352.79-.786.79H10.5c-.434 0-.785-.353-.785-.79v-.043c0-.436.352-.79.785-.79h.043c.434 0 .786.353.786.79v.043zm-.043-2.43c0 .436-.35.79-.785.79s-.785-.353-.785-.79l-.51-7.165c0-.436.86-.96 1.295-.96s1.295.524 1.295.96l-.5 7.165z" fill="#ffa11d"/></svg>
